X: 29
I: linebreak $
T: The Fine Companion
T: square for four couples
C: 
P: AABB x 3
K: D minor
M: 6/4
L: 1/8
P: A
 |: A2 | "Dm"d4f2 d2d2a2 | "Am"c3de2 "Dm"f3ed2 | "F"a2a2g2 "Dm"a2a2g2 | "Am"a2e4 e4d2 | "C"e2e2e2 e4d2 | "Am"c3de2 A4e2 | 
"Dm"f4d2 "Am"c2d2e2 | "Dm"d6 d4 :: 
P: B
d2 | "Am"c2A2A2 e4d2 | "Am"c2A2B2 A4e2 | "Dm"f2d2e2 f2d2e2 | "Dm"f6 "C"g6 | 
"Am"a2a2a2 c3de2 | "Dm"f2f2e2 f2e2a2 | "Am"c2c2d2 e2c2A2 | "Dm"d6 f4 :| 

